!!!!SEGMENT: pl-kozmzk--mzk-m-346--001_walczynski-franciszek--cantantibus-organis-maestoso.krn
!!!cenid: 18xx:2796
!!!COM: Walczyński, Franciszek
!!!COM-rism: pe30021989
!!!CDT: ~1852-1937
!!!CNT: Polish
!!!OTL: Cantantibus organis – Maestoso
!!!PDT: 1898
!!!AGN: Secular
!!!SMS-siglum: PL-KOZmzk
!!!SMS-shelfmark: mzk/m/346
!!!NIFC-rismID: 1001109053
!!!URL-scan: https://repozytorium.nifc.pl/islandora/object/pl-kozmzk%3A7453/datastream/PDF/view
!!!ONB-nifc:
!!!SMS-variant:
!!!SMS-altvar:
!!!OMD:Maestoso
**kern	**kern	**dynam
*part2	*part1	*part1
*staff2	*staff1	*
*I"[Organo]	*	*
*clefF4	*clefG2	*
*k[]	*k[]	*
*M4/4	*M4/4	*
*met(c)	*met(c)	*
=1	=1	=1
*^	*^	*
!LO:TX:i:b:t=Ped.	!	!	!	!
(4E/	([1C\	(4c/	4G\	f
4F/	.	4d/	4A-X\	.
4E/	.	4c/	4G\	.
4F/	.	4d/	4B\	.
=2	=2	=2	=2	=2
2G/	2C\]	1e/)	(2c\	.
2G#X/)	2BB\)	.	2d\)	.
=3	=3	=3	=3	=3
(1A/	(4AA\	(4e/	(1c\	.
.	4D\	4f/	.	.
.	4AA\	4e/	.	.
.	4D\	4f#X/	.	.
=4	=4	=4	=4	=4
2c/	2.G\	1g/)	1d\)	.
2B/)	.	.	.	.
.	4F\)	.	.	.
=5	=5	=5	=5	=5
(4c/	(4E\	(4g/	4g\	<
4B/	4D\	4g#X/	4fn\	.
4A/	4C\	4a/	2e\	.
4G#X/	4BB\	4b/	.	.
=6	=6	=6	=6	=6
2A/	4AA\	4cc/	2e\	.
.	4GG\	4cc#X/	.	.
4d/	4FF\	4dd/	2a\	.
4e-X/)	4FF#X\)	4ccn/)	.	[[
=7	=7	=7	=7	=7
(4d/	1GG\	1b/	(4g\	ff
4fn/	.	.	4a\	.
4en/	.	.	4g\	.
4d/	.	.	4f\	.
=8	=8	=8	=8	=8
4f/	1C\;	1cc/;	1g\)	>
8e/L	.	.	.	.
8d/J	.	.	.	.
2e;/)	.	.	.	]]
!!LO:LB:g=original
=9	=9	=9	=9	=9
!LO:TX:i:b:t=senza Ped.	!	!	!	!
[1c/	(2B-X\	(4cc/	2e\	pp
.	.	8dd/L	.	.
.	.	8cc/J	.	.
.	2A\	4ff/	2f\	.
.	.	[4cc/	.	.
=10	=10	=10	=10	=10
1c/]	2G\	4cc/]	2e\	.
.	.	4b-X/	.	.
.	2F\	2a/	2f\	.
=11	=11	=11	=11	=11
2c#X/	2E\	4a/	2g\	.
.	.	8b-X/L	.	.
.	.	8a/J	.	.
[2A/	2D\	4dd/	2f\	.
.	.	4a/	.	.
=12	=12	=12	=12	=12
1A/]	2C#X\	4a/	2e\	.
.	.	4g/	.	.
.	2D\)	2f/)	2d\	.
=13	=13	=13	=13	=13
!	!	!LO:TX:t=P:problem:pf się nie wyświetla	!	!
(4B/	(2G\	(4g/	1f\	pf <
8c/L	.	8a/L	.	.
8d/J	.	8bn/J	.	.
2B/	4G\	4ee/	.	.
.	4G#X\	4dd/	.	[[
=14	=14	=14	=14	=14
4c/	4A\	4cc/	4e\	f
4A/	4F\	8dd/L	4a\	.
.	.	8dd#X/J	.	.
2B/)	2E\	2ee/)	2g#X\	.
=15	=15	=15	=15	=15
2B/	2D\	(2ff/	2.gn\	p
4d/	4F\	4dd/	.	.
4e-X/	4F#X\	4cc/	[4a\	.
=16	=16	=16	=16	=16
1d/	1G\)	2cc/	2a\]	>
.	.	2b/)	4g\	.
.	.	.	4f\	]]
*	*	*v	*v	*
*v	*v	*	*
=17	=17	=17
!LO:TX:i:b:t=Ped.	!	!
[1c/ [1C\	(>4cc/ 4g/ 4e/	ff
.	4dd/ 4a-X/ 4f/	.
.	4cc/ 4g/ 4e/	.
.	4dd/ 4b/ 4f/	.
!!LO:LB:g=original
=18	=18	=18
4c\] 4C\]	1ee\ 1cc\ 1g\)	.
4B\ 4BB^\	.	.
2B-X\ 2BB-X^\	.	.
=19	=19	=19
4A\ 4AA^\	(>2ff/ 2cc/ 2f/	.
4A-X\ 4AA-X^\	.	.
4G/ 4GG^/	4ee/ 4cc/ 4g/	.
4G#X/ 4GG#X^/	4dd/ 4b/ 4f/	.
=20	=20	=20
*	*^	*
4A\ 4AA^\	4cc/	[2a\ 2e\	.
4Gn/ 4GGn^/	4cc#X/	.	.
4F/ 4FF^/	4dd/	2a\] 2d\	.
4F#X/ 4FF#X^/	4cc#/	.	.
=21	=21	=21	=21
4G/ 4GG^/	2b/	[2g\ 2d\	.
4Fn/ 4FFn^/	.	.	.
4E/ 4EE^/	4cc/	2g\] 2c\	.
4C/ 4CC^/	4b-X/)	.	.
*	*v	*v	*
=22	=22	=22
4F/ 4FF^/	4a/ 4f/ 4c/	.
4D/ 4DD^/	4dd/ 4a/ 4f^/	.
4C#X/ 4CC#X^/	4gg\ 4ee\ 4b-X^\	.
8D/L 8DD^/	4ff\ 4dd\ 4a^\	.
8F/J 8FF^/	.	.
=23	=23	=23
*	*^	*
1G/ 1GG/	(2ee/ 2cc/	2.g\	>
.	2dd/ 2bn/	.	.
.	.	4f\	.
*	*v	*v	*
=24	=24	=24
1C/ 1CC/	1cc/ 1g/ 1e/)	]]
=25	=25	=25
*^	*	*
(4G/ 4E/	[1C\ [1CC\	(4c/	pp <
4A-X/ 4F/	.	4d/	.
4G/ 4E/	.	4c/	.
!	!	!LO:TX:b:i:t=rit.	!
8An/L 8F/	.	4d/	[
8B/J	.	.	.
=26	=26	=26	=26
1c/ 1G/)	1C\] 1CC\;]	1e/;)	>]
*v	*v	*	*
==	==	==
*-	*-	*-
!!!system-decoration: {(s1,s2)}
!!!ENC: Andrzej Gręziak
!!!END: 2021-07-27
!!!EED: Andrzej Borzym
!!!EST: 2021-08-09
!!!RDF**kern: > = above
!!!RDF**kern: < = below
